packages/core/src/svgs/wallets/mono/zengo.svg

<svg width="24" height="24" viewBox="0 0 24 24" fill="none" xmlns="http://www.w3.org/2000/svg">
<path d="M17.9321 3H11.7253L10.0435 5.14234H17.2914C19.1534 5.14234 19.8742 6.74409 19.1735 7.74518C18.773 8.30579 16.1702 11.5894 16.1702 11.5894H18.9933C18.9933 11.5894 19.8142 10.5282 20.6751 9.42701C21.4159 8.48599 22.6573 6.78413 21.5761 4.98216C20.4148 3 18.753 3 17.9321 3Z" fill="white"/>
<path d="M4.81781 15.4336C5.21824 14.873 7.82108 11.5894 7.82108 11.5894H4.998C4.998 11.5894 4.17711 12.6505 3.31617 13.7517C2.57536 14.6928 1.35403 16.3946 2.41518 18.1966C3.57645 20.1787 5.25829 20.1787 6.05916 20.1787H12.2659L13.9478 18.0164H6.69986C4.85785 18.0164 4.11704 16.4146 4.81781 15.4336Z" fill="white"/>
<path d="M15.9099 8.36586C16.2102 7.98544 15.8498 7.28468 15.3493 7.28468H8.36167L6.67984 9.42701H12.2659L8.06135 14.8129C7.72097 15.2534 7.98126 15.8941 8.60194 15.8941H15.6296L17.3114 13.7517H11.7053L15.9099 8.36586Z" fill="white"/>
</svg>

<svg xmlns="http://www.w3.org/2000/svg" width="24" height="24" fill="none" viewBox="0 0 24 24">
    <path fill="#fff" d="M17.932 3h-6.207l-1.681 2.142h7.247c1.862 0 2.583 1.602 1.883 2.603-.401.56-3.004 3.844-3.004 3.844h2.823s.821-1.06 1.682-2.162c.74-.941 1.982-2.643.901-4.445C20.415 3 18.753 3 17.932 3M4.818 15.434c.4-.561 3.003-3.845 3.003-3.845H4.998s-.82 1.061-1.682 2.163c-.74.94-1.962 2.643-.9 4.445 1.16 1.982 2.842 1.982 3.643 1.982h6.207l1.682-2.163H6.7c-1.842 0-2.583-1.601-1.882-2.582"/>
    <path fill="#fff" d="M15.91 8.366c.3-.38-.06-1.081-.56-1.081H8.361L6.68 9.427h5.586L8.06 14.813c-.34.44-.08 1.081.54 1.081h7.029l1.681-2.142h-5.606z"/>
</svg>
